src/images/github-logo.svg

<?xml version="1.0" encoding="UTF-8"?>
<svg fill="none" viewBox="0 0 46 46" xmlns="http://www.w3.org/2000/svg">
<path d="m23 4.1084c-10.497 0-19.006 8.5223-19.006 19.038 0 8.4101 5.4452 15.547 12.998 18.063 0.9503 0.1748 1.2962-0.4124 1.2962-0.918 0-0.4504-0.0152-1.6497-0.0247-3.2367-5.2874 1.1498-6.4031-2.5525-6.4031-2.5525-0.8629-2.2009-2.1096-2.7863-2.1096-2.7863-1.7257-1.1784 0.13115-1.1556 0.13115-1.1556 1.9063 0.1331 2.9098 1.9615 2.9098 1.9615 1.6953 2.9079 4.4493 2.0678 5.5308 1.5812 0.1748-1.2296 0.6652-2.0678 1.2087-2.543-4.2193-0.4808-8.6572-2.1153-8.6572-9.4098 0-2.0774 0.7412-3.7784 1.9557-5.1088-0.1957-0.4809-0.8476-2.4176 0.1863-5.0366 0 0 1.5965-0.5132 5.2266 1.95 1.5505-0.4229 3.1502-0.6382 4.7572-0.6405 1.6155 0.0076 3.2405 0.2186 4.7591 0.6405 3.6283-2.4632 5.221-1.9519 5.221-1.9519 1.0377 2.6209 0.3839 4.5576 0.19 5.0385 1.2164 1.3304 1.9538 3.0314 1.9538 5.1088 0 7.3135-4.4455 8.9233-8.6781 9.3946 0.6823 0.5873 1.2886 1.7486 1.2886 3.5257 0 2.543-0.0228 4.5975-0.0228 5.2209 0 0.5094 0.3421 1.1023 1.3076 0.9161 3.7847-1.2694 7.0747-3.6961 9.4051-6.9371s3.5833-7.1324 3.5817-11.124c0-10.516-8.5109-19.038-19.006-19.038z" clip-rule="evenodd" fill="#fff" fill-rule="evenodd"/>
</svg>

<svg width="46" height="46" viewBox="0 0 46 46" fill="none" xmlns="http://www.w3.org/2000/svg">
<path fill-rule="evenodd" clip-rule="evenodd" d="M23.0001 4.1084C12.5031 4.1084 3.99414 12.6307 3.99414 23.1467C3.99414 31.5568 9.43936 38.6936 16.9923 41.21C17.9426 41.3848 18.2885 40.7976 18.2885 40.292C18.2885 39.8416 18.2733 38.6423 18.2638 37.0553C12.9764 38.2051 11.8607 34.5028 11.8607 34.5028C10.9978 32.3019 9.75105 31.7165 9.75105 31.7165C8.02531 30.5381 9.8822 30.5609 9.8822 30.5609C11.7885 30.694 12.792 32.5224 12.792 32.5224C14.4873 35.4303 17.2413 34.5902 18.3228 34.1036C18.4976 32.874 18.988 32.0358 19.5315 31.5606C15.3122 31.0798 10.8743 29.4453 10.8743 22.1508C10.8743 20.0734 11.6155 18.3724 12.83 17.042C12.6343 16.5611 11.9824 14.6244 13.0163 12.0054C13.0163 12.0054 14.6128 11.4922 18.2429 13.9554C19.7934 13.5325 21.3931 13.3172 23.0001 13.3149C24.6156 13.3225 26.2406 13.5335 27.7592 13.9554C31.3875 11.4922 32.9802 12.0035 32.9802 12.0035C34.0179 14.6244 33.3641 16.5611 33.1702 17.042C34.3866 18.3724 35.124 20.0734 35.124 22.1508C35.124 29.4643 30.6785 31.0741 26.4459 31.5454C27.1282 32.1327 27.7345 33.294 27.7345 35.0711C27.7345 37.6141 27.7117 39.6686 27.7117 40.292C27.7117 40.8014 28.0538 41.3943 29.0193 41.2081C32.804 39.9387 36.094 37.512 38.4244 34.271C40.7548 31.03 42.0077 27.1386 42.0061 23.1467C42.0061 12.6307 33.4952 4.1084 23.0001 4.1084Z" fill="white"/>
</svg>
